svg/Pictogram/pictograms-aem-0041-foldable_rops.svg

<?xml version="1.0" encoding="ISO-8859-1" standalone="yes"?>
<svg height="304.014" width="304.015">
  <metadata>
    <rdf:RDF xmlns:cc="http://web.resource.org/cc/" xmlns:dc="http://purl.org/dc/elements/1.1/" xmlns:rdf="http://www.w3.org/1999/02/22-rdf-syntax-ns#">
      <cc:Work rdf:about="">
        <dc:title></dc:title>
        <dc:description></dc:description>
        <dc:subject>
          <rdf:Bag>
            <rdf:li></rdf:li>
          </rdf:Bag>
        </dc:subject>
        <dc:publisher>
          <cc:Agent rdf:about="http://www.unece.org/trans/danger/publi/ghs/pictograms.html">
            <dc:title>Source: UNECE GHS of Classification and Labeling of Chemicals, Source: AEM Pictorial Database, Source: AEM Pictorial Database, Source: AEM Pictorial Database, Source: AEM Pictorial Database</dc:title>
          </cc:Agent>
        </dc:publisher>
        <dc:creator>
          <cc:Agent>
            <dc:title></dc:title>
          </cc:Agent>
        </dc:creator>
        <dc:rights>
          <cc:Agent>
            <dc:title></dc:title>
          </cc:Agent>
        </dc:rights>
        <dc:date></dc:date>
        <dc:format>image/svg+xml</dc:format>
        <dc:type rdf:resource="http://purl.org/dc/dcmitype/StillImage"/>
        <cc:license rdf:resource="http://en.wikipedia.org/wiki/Public_domain"/>
        <dc:language>en</dc:language>
      </cc:Work>
    </rdf:RDF>
  </metadata>
  <defs><marker id="ArrowEnd" markerHeight="3" markerUnits="strokeWidth" markerWidth="4" orient="auto" refX="0" refY="5" viewBox="0 0 10 10"><path d="M 0 0 L 10 5 L 0 10 z"/></marker><marker id="ArrowStart" markerHeight="3" markerUnits="strokeWidth" markerWidth="4" orient="auto" refX="10" refY="5" viewBox="0 0 10 10"><path d="M 10 0 L 0 5 L 10 10 z"/></marker> </defs>
  <g id="g2958" transform="matrix(1.3532768,0,0,1.3532781,-53.207834,-52.192858)">
    <path d="M 149.179 126.807C 151.296 126.78 153.421 127.28 154.792 128.315C 154.792 118.592 154.792 68.1704 154.792 59.0734C 154.792 53.2764 142.694 53.2764 142.444 59.0734C 142.21 64.4594 142.409 121.038 142.44 129.006C 143.8 127.444 146.538 126.709 149.179 126.807" style="stroke:none; fill-rule:evenodd; fill:#000000"/>
    <path d="M 159.522 105.471L 161.644 107.553L 161.628 107.831C 161.737 107.834 161.843 107.846 161.948 107.854L 185.03 130.51L 187.03 128.471L 166.468 108.288C 198.37 112.416 222.214 140.475 220.53 173.139L 223.554 173.295C 225.276 139.928 201.597 111.143 169.448 105.67L 194.745 98.6354L 193.98 95.8854L 161.87 104.811C 161.843 104.811 161.812 104.807 161.784 104.803L 161.78 104.834L 159.542 105.459" style="stroke:none; fill-rule:evenodd; fill:#000000"/>
    <path d="M 86.3784 178.647L 52.7374 145.01L 61.4994 137.135L 75.0974 150.737L 79.7574 146.073L 50.7144 117.03L 50.7144 126.354L 55.7264 131.366L 49.9604 136.811L 50.0224 142.295L 49.9604 142.229L 49.9604 213.795L 79.7844 213.795C 79.3234 211.006 79.0694 208.151 79.0694 205.229C 79.0694 195.514 81.7414 186.428 86.3784 178.647" style="stroke:none; fill-rule:evenodd; fill:#000000"/>
    <path d="M 131.062 153.198C 146.98 153.198 161.222 160.354 170.765 171.616L 179.991 162.389L 164.366 146.764L 154.792 146.764C 154.792 143.592 154.792 138.342 154.792 134.545C 154.792 128.748 142.569 128.811 142.315 134.608C 142.151 138.401 142.175 143.608 142.21 146.764L 101.366 146.764L 85.2374 162.893L 92.7884 169.991C 102.296 159.67 115.921 153.198 131.058 153.198" style="stroke:none; fill-rule:evenodd; fill:#000000"/>
    <path d="M 179.886 205.229C 179.886 232.194 158.026 254.053 131.062 254.053C 104.097 254.053 82.2374 232.194 82.2374 205.229C 82.2374 178.264 104.097 156.409 131.062 156.409C 158.026 156.409 179.886 178.264 179.886 205.229zM 131.104 183.846C 119.292 183.846 109.722 193.42 109.722 205.229C 109.722 217.038 119.292 226.612 131.104 226.612C 142.913 226.612 152.487 217.038 152.487 205.229C 152.487 193.42 142.913 183.846 131.104 183.846" style="stroke:none; fill-rule:evenodd; fill:#000000"/>
    <path d="M 29.6204 265.393L 2.62042 265.393" style="stroke:#000000; stroke-width:0.5; fill:none"/>
    <path d="M 38.6204 274.393L 38.6204 301.393" style="stroke:#000000; stroke-width:0.5; fill:none"/>
    <path d="M 29.6204 38.6204L 2.62042 38.6204" style="stroke:#000000; stroke-width:0.5; fill:none"/>
    <path d="M 38.6204 29.6204L 38.6204 2.62042" style="stroke:#000000; stroke-width:0.5; fill:none"/>
    <path d="M 274.394 38.6204L 301.394 38.6204" style="stroke:#000000; stroke-width:0.5; fill:none"/>
    <path d="M 265.394 29.6204L 265.394 2.62042" style="stroke:#000000; stroke-width:0.5; fill:none"/>
    <path d="M 274.394 265.393L 301.394 265.393" style="stroke:#000000; stroke-width:0.5; fill:none"/>
    <path d="M 265.394 274.393L 265.394 301.393" style="stroke:#000000; stroke-width:0.5; fill:none"/>
  </g>
</svg>

<svg viewBox="0 0 304.01 304.01"><g transform="matrix(1.35328 0 0 1.35328-53.21-52.19)" fill-rule="evenodd"><path d="m149.18 126.81c2.117-.027 4.242.473 5.613 1.508 0-9.723 0-60.14 0-69.24 0-5.797-12.1-5.797-12.348 0-.234 5.386-.035 61.965-.004 69.933 1.36-1.562 4.098-2.297 6.739-2.199"/><path d="m159.52 105.47l2.122 2.082-.016.278c.109.003.215.015.32.023l23.08 22.656 2-2.039-20.562-20.18c31.902 4.128 55.746 32.19 54.06 64.851l3.02.156c1.722-33.367-21.957-62.15-54.11-67.62l25.297-7.03-.765-2.75-32.11 8.926c-.027 0-.058-.004-.086-.008l-.004.031-2.238.625"/><path d="m86.38 178.65l-33.641-33.637 8.762-7.875 13.598 13.602 4.66-4.664-29.04-29.04v9.324l5.01 5.01-5.766 5.445.062 5.484-.062-.066v71.57h29.824c-.461-2.789-.715-5.644-.715-8.566 0-9.715 2.672-18.801 7.309-26.582"/><path d="m131.06 153.2c15.918 0 30.16 7.156 39.703 18.418l9.226-9.227-15.625-15.625h-9.574c0-3.172 0-8.422 0-12.219 0-5.797-12.223-5.734-12.477.063-.164 3.793-.14 9-.105 12.156h-40.844l-16.13 16.13 7.551 7.098c9.508-10.321 23.13-16.793 38.27-16.793"/><path d="m179.89 205.23c0 26.965-21.86 48.824-48.824 48.824-26.965 0-48.825-21.859-48.825-48.824 0-26.965 21.86-48.82 48.825-48.82 26.964 0 48.824 21.855 48.824 48.82m-48.782-21.383c-11.812 0-21.382 9.574-21.382 21.383 0 11.809 9.57 21.383 21.382 21.383 11.809 0 21.383-9.574 21.383-21.383 0-11.809-9.574-21.383-21.383-21.383"/></g></svg>
